icons/src/fluent/svg/attach_24_filled.svg

<svg width="24" height="24" viewBox="0 0 24 24" fill="none" xmlns="http://www.w3.org/2000/svg">
<path d="M16.0009 2C19.3146 2 22.0009 4.68629 22.0009 8C22.0009 9.5373 21.4188 10.9843 20.397 12.0835L20.2071 12.2784L11.48 21.0053L11.4269 21.0548L11.3711 21.0997C10.7019 21.6759 9.84692 22 8.94388 22C6.88877 22 5.22277 20.334 5.22277 18.2789C5.22277 17.3775 5.54579 16.5248 6.11833 15.8574L6.26662 15.6945L6.2817 15.6826L13.5727 8.37879C13.9629 7.98793 14.5961 7.98737 14.9869 8.37755C15.3778 8.76774 15.3783 9.4009 14.9882 9.79177L7.69715 17.0956L7.68622 17.1039C7.38992 17.4208 7.22277 17.8354 7.22277 18.2789C7.22277 19.2294 7.99333 20 8.94388 20C9.32283 20 9.68077 19.8781 9.9751 19.6571L10.0972 19.5564L10.098 19.558L18.8004 10.8571L18.959 10.6927C19.6241 9.96299 20.0009 9.0125 20.0009 8C20.0009 5.79086 18.21 4 16.0009 4C14.9393 4 13.9463 4.4146 13.2058 5.13858L13.051 5.29842L13.0326 5.31139L3.70726 14.6403C3.31683 15.0309 2.68366 15.031 2.29305 14.6406C1.90244 14.2501 1.9023 13.617 2.29274 13.2264L11.6017 3.91324L11.6483 3.87021C12.7722 2.68577 14.3326 2 16.0009 2Z" fill="#212121"/>
</svg>

<svg width="24" height="24" fill="none" viewBox="0 0 24 24" xmlns="http://www.w3.org/2000/svg"><path d="M16 2a6 6 0 0 1 4.396 10.084l-.19.194-8.727 8.727-.053.05-.056.045a3.721 3.721 0 0 1-5.253-5.242l.149-.164.015-.011 7.29-7.304a1 1 0 0 1 1.416 1.413l-7.29 7.304-.012.008a1.721 1.721 0 0 0 2.289 2.553l.122-.1.001.001 8.702-8.7.159-.165a4 4 0 0 0-5.753-5.554l-.155.16-.018.012-9.326 9.33a1 1 0 0 1-1.414-1.415L11.6 3.913l.046-.043A5.985 5.985 0 0 1 16 2Z" fill="#212121"/></svg>
